icons/light/js.svg

<svg width="16" height="16" viewBox="0 0 16 16" fill="none" xmlns="http://www.w3.org/2000/svg">
<path d="M2 2H14V14H2V2ZM5.15333 12.0267C5.42 12.5933 5.94667 13.06 6.84667 13.06C7.84667 13.06 8.53333 12.5267 8.53333 11.36V7.50667H7.4V11.3333C7.4 11.9067 7.16667 12.0533 6.8 12.0533C6.41333 12.0533 6.25333 11.7867 6.07333 11.4733L5.15333 12.0267ZM9.14 11.9067C9.47333 12.56 10.1467 13.06 11.2 13.06C12.2667 13.06 13.0667 12.5067 13.0667 11.4867C13.0667 10.5467 12.5267 10.1267 11.5667 9.71333L11.2867 9.59333C10.8 9.38667 10.5933 9.24667 10.5933 8.91333C10.5933 8.64 10.8 8.42667 11.1333 8.42667C11.4533 8.42667 11.6667 8.56667 11.86 8.91333L12.7333 8.33333C12.3667 7.69333 11.8467 7.44667 11.1333 7.44667C10.1267 7.44667 9.48 8.08667 9.48 8.93333C9.48 9.85333 10.02 10.2867 10.8333 10.6333L11.1133 10.7533C11.6333 10.98 11.94 11.12 11.94 11.5067C11.94 11.8267 11.64 12.06 11.1733 12.06C10.62 12.06 10.3 11.7733 10.06 11.3733L9.14 11.9067Z" fill="#424242"/>
</svg>

<svg xmlns="http://www.w3.org/2000/svg" width="16" height="16" fill="none" xmlns:v="https://vecta.io/nano"><path d="M2 2h12v12H2V2zm3.153 10.027c.267.567.793 1.033 1.693 1.033 1 0 1.687-.533 1.687-1.7V7.507H7.4v3.827c0 .573-.233.72-.6.72-.387 0-.547-.267-.727-.58l-.92.553zm3.987-.12c.333.653 1.007 1.153 2.06 1.153 1.067 0 1.867-.553 1.867-1.573 0-.94-.54-1.36-1.5-1.773l-.28-.12c-.487-.207-.693-.347-.693-.68 0-.273.207-.487.54-.487.32 0 .533.14.727.487l.873-.58c-.367-.64-.887-.887-1.6-.887-1.007 0-1.653.64-1.653 1.487 0 .92.54 1.353 1.353 1.7l.28.12c.52.227.827.367.827.753 0 .32-.3.553-.767.553-.553 0-.873-.287-1.113-.687l-.92.533z" fill="#424242"/></svg>
